X: 08054
T: JENNINGS' HORNPIPE
C: Bob McQuillen 17 April 90
B: Bob's Note Book 8 #54
%R: hornpipe, reel
Z: 2021 John Chambers <jc:trillian.mit.edu>
M: C
L: 1/8
K: D
DE \
| F2FA GBAG | FAdc d2AG | FAdA GBdB | Adfd e2AG |\
| FDFA GBAG | FAde fafd | Bdgb afeg | f2d2 d2 :|
|: cd \
| e2ef edce | d2dB AFDF | G2BG F2AF | EDEF E2cd |\
| efgf edce | d2de fdAd | BdcB Acec | d2f2 d2 :|
%%begintext align
%% I'm sure that
%% every Contra Dancer in New England would agree
%% that Larry Jennings should have a tune
%% named just for him, so here it is, Larry,
%% with every good wish & thanks from us all --
%%endtext

%%sep 1 1 500

%%sep 1 1 500

